X:1
T:Title
%%score { 1 | ( 2 3 ) }
L:1/8
M:6/8
K:Ab
V:1 treble nm="Grand Piano"
V:2 bass 
V:3 bass 
V:1
 z3 z2[Q:1/4=84] [CE] | [CE][DF][CE] [CA]2 [CE] | [CE][DF][CE] [Ec]2 [Ec] | B2 B BcB | %4
[M:5/8] [CA]-[CA]- [CA]3 |[M:1/8] [CE] |[M:3/4] [CE][DF] [CE] [CA]2 [CE] | %7
 [CE][DF] [CE] [Ec]2 [Ec] | B2 BB cB |[M:5/8] [CA]-[CA]- [CA]3 |[M:1/8] [Ac]/d/ | %11
[M:3/4] [ce]2 [ce][ce] dc | [Bd]2 [Bd] [Bd]2 [B,GB]/[Ac]/ | [Bd]2 [Bd][Bd] c[GB] | %14
 [Ac]4- [Ac][CA]/[EB]/ | [Ec]2 [Ec][Ec] [DB][A,CA] |[M:7/8] [A,DF]2 [A,DF] [A,FA]3 [A,DF] | %17
[M:3/4] [A,CE]2 [A,CA][B,G] AB |[M:5/8] [CA]-[CA]- [CA]3 |] %19
V:2
 z3 z2 [A,,A,] | [A,,A,]2 [A,,A,] [A,,E,]2 [A,,A,] | [A,,A,]2 [A,,A,] [A,,A,]2 [A,,A,] | %3
 [E,D]2 [E,D] DE[E,D] |[M:5/8] [A,,E,]-[A,,E,]- [A,,E,]3 |[M:1/8] [A,,A,] | %6
[M:3/4] [A,,A,]2 [A,,A,] [A,,E,]2 [A,,A,] | [A,,A,]2 [A,,A,] [A,,A,]2 [A,,A,] | %8
 [E,D]2 [E,D]D E[E,D] |[M:5/8] [A,,E,]-[A,,E,]- [A,,E,]3 |[M:1/8] z/[K:treble] B/ | %11
[M:3/4] A,2 .A,2 B[A,A] | [E,G,]2 [E,G,] [E,G,]2 z/ A,/ | [E,G,]2 [E,G,]G, [A,A][E,B,] | %14
 [A,,A,]4- [A,,A,][A,,A,] | [A,,A,]2 [A,,A,]A, G,A,, |[M:7/8] D,2 D, D,3 D, | %17
[M:3/4] E,2 .E,2 C[E,D] |[M:5/8] [A,,E,]-[A,,E,]- [A,,E,]3 |] %19
V:3
 x6 | x6 | x6 | z3 .E,3 |[M:5/8] x5 |[M:1/8] x |[M:3/4] x6 | x6 | z2 z .E,3 |[M:5/8] x5 | %10
[M:1/8] A,[K:treble] |[M:3/4] z2 z .A,3 | z2 z2 z E, | z2 z .E,3 | x6 | z2 z .A,,3 |[M:7/8] x7 | %17
[M:3/4] z2 z .E,3 |[M:5/8] x5 |] %19

